_includes/icons/ios-linkedin.svg

<svg fill="#666" height="50" viewBox="0 0 50 50" width="50" xmlns="http://www.w3.org/2000/svg"><path d="m9 4c-2.7495161 0-5 2.2504839-5 5v32c0 2.749516 2.2504839 5 5 5h32c2.749516 0 5-2.250484 5-5v-32c0-2.7495161-2.250484-5-5-5zm0 2h32c1.668484 0 3 1.3315161 3 3v32c0 1.668484-1.331516 3-3 3h-32c-1.6684839 0-3-1.331516-3-3v-32c0-1.6684839 1.3315161-3 3-3zm5 5.011719c-1.095221 0-2.080781.32736-2.810547.941406s-1.177734 1.531386-1.177734 2.513672c0 1.86718 1.619566 3.322812 3.679687 3.466797a.98809878.98809878 0 0 0 .003906.001953.98809878.98809878 0 0 0 .304688.052734c2.27301 0 3.988281-1.592198 3.988281-3.521484a.98809878.98809878 0 0 0 -.001953-.052735c-.101751-1.900231-1.795885-3.402343-3.986328-3.402343zm0 1.976562c1.392231 0 1.94197.621757 2.001953 1.503907-.01215.856246-.541862 1.519531-2.001953 1.519531-1.385406 0-2.011719-.709494-2.011719-1.544922 0-.417714.152422-.732499.472657-1.001953.320232-.269454.834283-.476563 1.539062-.476563zm-3 6.011719a1.0001 1.0001 0 0 0 -1 1v19a1.0001 1.0001 0 0 0 1 1h6a1.0001 1.0001 0 0 0 1-1v-5.865234-13.134766a1.0001 1.0001 0 0 0 -1-1zm9 0a1.0001 1.0001 0 0 0 -1 1v19a1.0001 1.0001 0 0 0 1 1h6a1.0001 1.0001 0 0 0 1-1v-10c0-.829667.226394-1.654965.625-2.195312.398606-.540349.901466-.864631 1.857422-.847657.985744.01695 1.507577.354638 1.902344.884766.394766.530127.615234 1.32487.615234 2.158203v10a1.0001 1.0001 0 0 0 1 1h6a1.0001 1.0001 0 0 0 1-1v-10.738281c0-2.961538-.877212-5.307389-2.380859-6.894531-1.503648-1.587144-3.594969-2.367188-5.806641-2.367188-2.102017 0-3.701647.704889-4.8125 1.423828v-.423828a1.0001 1.0001 0 0 0 -1-1zm-8 2h4v12.134766 4.865234h-4zm9 0h4v1.560547a1.0001 1.0001 0 0 0 1.798828.601562s1.570366-2.162109 5.013672-2.162109c1.753328 0 3.256866.582581 4.355469 1.742188 1.098603 1.159606 1.832031 2.946069 1.832031 5.519531v9.738281h-4v-9c0-1.166667-.279532-2.372893-1.009766-3.353516-.730233-.980622-1.9584-1.663408-3.472656-1.689453-1.522044-.02703-2.770059.669957-3.501953 1.66211-.731894.992152-1.015625 2.210526-1.015625 3.380859v9h-4z"/></svg>

<svg xmlns="http://www.w3.org/2000/svg" viewBox="0 0 50 50" width="50" height="50" fill="#666"><path style="line-height:normal;text-indent:0;text-align:start;text-decoration-line:none;text-decoration-style:solid;text-decoration-color:#000;text-transform:none;block-progression:tb;isolation:auto;mix-blend-mode:normal" d="M 9 4 C 6.2504839 4 4 6.2504839 4 9 L 4 41 C 4 43.749516 6.2504839 46 9 46 L 41 46 C 43.749516 46 46 43.749516 46 41 L 46 9 C 46 6.2504839 43.749516 4 41 4 L 9 4 z M 9 6 L 41 6 C 42.668484 6 44 7.3315161 44 9 L 44 41 C 44 42.668484 42.668484 44 41 44 L 9 44 C 7.3315161 44 6 42.668484 6 41 L 6 9 C 6 7.3315161 7.3315161 6 9 6 z M 14 11.011719 C 12.904779 11.011719 11.919219 11.339079 11.189453 11.953125 C 10.459687 12.567171 10.011719 13.484511 10.011719 14.466797 C 10.011719 16.333977 11.631285 17.789609 13.691406 17.933594 A 0.98809878 0.98809878 0 0 0 13.695312 17.935547 A 0.98809878 0.98809878 0 0 0 14 17.988281 C 16.27301 17.988281 17.988281 16.396083 17.988281 14.466797 A 0.98809878 0.98809878 0 0 0 17.986328 14.414062 C 17.884577 12.513831 16.190443 11.011719 14 11.011719 z M 14 12.988281 C 15.392231 12.988281 15.94197 13.610038 16.001953 14.492188 C 15.989803 15.348434 15.460091 16.011719 14 16.011719 C 12.614594 16.011719 11.988281 15.302225 11.988281 14.466797 C 11.988281 14.049083 12.140703 13.734298 12.460938 13.464844 C 12.78117 13.19539 13.295221 12.988281 14 12.988281 z M 11 19 A 1.0001 1.0001 0 0 0 10 20 L 10 39 A 1.0001 1.0001 0 0 0 11 40 L 17 40 A 1.0001 1.0001 0 0 0 18 39 L 18 33.134766 L 18 20 A 1.0001 1.0001 0 0 0 17 19 L 11 19 z M 20 19 A 1.0001 1.0001 0 0 0 19 20 L 19 39 A 1.0001 1.0001 0 0 0 20 40 L 26 40 A 1.0001 1.0001 0 0 0 27 39 L 27 29 C 27 28.170333 27.226394 27.345035 27.625 26.804688 C 28.023606 26.264339 28.526466 25.940057 29.482422 25.957031 C 30.468166 25.973981 30.989999 26.311669 31.384766 26.841797 C 31.779532 27.371924 32 28.166667 32 29 L 32 39 A 1.0001 1.0001 0 0 0 33 40 L 39 40 A 1.0001 1.0001 0 0 0 40 39 L 40 28.261719 C 40 25.300181 39.122788 22.95433 37.619141 21.367188 C 36.115493 19.780044 34.024172 19 31.8125 19 C 29.710483 19 28.110853 19.704889 27 20.423828 L 27 20 A 1.0001 1.0001 0 0 0 26 19 L 20 19 z M 12 21 L 16 21 L 16 33.134766 L 16 38 L 12 38 L 12 21 z M 21 21 L 25 21 L 25 22.560547 A 1.0001 1.0001 0 0 0 26.798828 23.162109 C 26.798828 23.162109 28.369194 21 31.8125 21 C 33.565828 21 35.069366 21.582581 36.167969 22.742188 C 37.266572 23.901794 38 25.688257 38 28.261719 L 38 38 L 34 38 L 34 29 C 34 27.833333 33.720468 26.627107 32.990234 25.646484 C 32.260001 24.665862 31.031834 23.983076 29.517578 23.957031 C 27.995534 23.930001 26.747519 24.626988 26.015625 25.619141 C 25.283731 26.611293 25 27.829667 25 29 L 25 38 L 21 38 L 21 21 z"/></svg>
